fs/ticket_horizontal_24_filled.svg

<svg viewBox="0 0 24 24" fill="none" xmlns="http://www.w3.org/2000/svg" height="1em" width="1em">
  <path d="M20.7503 5C21.4406 5 22.0003 5.55964 22.0003 6.25004V8.50884C22.0003 8.90254 21.6957 9.22921 21.303 9.25694C19.8697 9.35814 18.7503 10.5545 18.7503 12C18.7503 13.4455 19.8697 14.6419 21.303 14.7431C21.6957 14.7708 22.0003 15.0975 22.0003 15.4912V17.75C22.0003 18.4404 21.4406 19 20.7503 19H3.25026C2.55991 19 2.00026 18.4404 2.00026 17.7501L2 15.4913C2 15.0975 2.30445 14.7708 2.69726 14.7431C4.13063 14.642 5.25026 13.4456 5.25026 12C5.25026 10.5544 4.13063 9.35797 2.69726 9.25692C2.30445 9.22922 2 8.90246 2 8.50869L2.00026 6.25C2.00026 5.55964 2.55991 5 3.25026 5H20.7503Z" fill="#212121"/>
</svg>

<svg viewBox="0 0 24 24" fill="none" xmlns="http://www.w3.org/2000/svg" height="1em" width="1em">
  <path d="M20.75 5c.69 0 1.25.56 1.25 1.25v2.259a.75.75 0 0 1-.697.748 2.75 2.75 0 0 0 0 5.486.75.75 0 0 1 .697.748v2.259c0 .69-.56 1.25-1.25 1.25H3.25C2.56 19 2 18.44 2 17.75v-2.259a.75.75 0 0 1 .697-.748 2.75 2.75 0 0 0 0-5.486A.75.75 0 0 1 2 8.509V6.25C2 5.56 2.56 5 3.25 5h17.5Z" fill="#212121"/>
</svg>
